TV/Source/TV Pezinok.svg

<svg height="2.850374mm" viewBox="0 0 3.6163249 2.8503737" width="3.616325mm" xmlns="http://www.w3.org/2000/svg" xmlns:xlink="http://www.w3.org/1999/xlink"><clipPath id="a"><path d="m374.735 524.479h10.251v8.08h-10.251z"/></clipPath><g clip-path="url(#a)" transform="matrix(.35277777 0 0 -.35277777 -132.198179 187.87498)"><g transform="translate(377.3702 527.7847)"><path d="m0 0c-.236.001-.177 3.79-.717 3.79h-1.919v.985h1.947c.294 0 .481-2.448.554-3.243.074-.794.098-.824.135-.824.038 0 .049.023.127.826.079.803.266 3.241.593 3.241h1.469c1.238 0 1.869-3.733 2.441-3.733.571 0 1.198 3.733 2.3 3.733h.636v-.985h-.618c-1.101 0-1.662-3.733-2.318-3.733-.657 0-1.203 3.733-2.441 3.733h-1.469c-.539 0-.484-3.791-.72-3.79" fill="#e2001a" fill-rule="evenodd"/></g><g transform="translate(374.8979 524.4948)"><path d="m0 0h-.155v1.25h.868c.186 0 .312-.018.377-.053.076-.041.113-.122.113-.245v-.163c0-.122-.037-.204-.113-.244-.065-.034-.191-.052-.377-.052h-.713zm0 .634h.758c.115 0 .19.014.225.042.036.027.054.083.054.168v.06c0 .085-.018.141-.054.169-.035.027-.11.041-.225.041h-.758z" fill="#e20020" fill-rule="evenodd"/></g><g transform="translate(376.3368 524.4948)"><path d="m0 0v1.25h1.231v-.139h-1.08v-.392h1.035v-.14h-1.035v-.44h1.08v-.139z" fill="#e20020" fill-rule="evenodd"/></g><g transform="translate(377.7193 524.4948)"><path d="m0 0v .139l1.155.975h-1.112v.136h1.339v-.136l-1.155-.975h1.172v-.139z" fill="#e20020" fill-rule="evenodd"/></g><path d="m379.526 524.495h-.155v1.25h.155z" fill="#e20020" fill-rule="evenodd"/><g transform="translate(379.9986 524.4948)"><path d="m0 0h-.155v1.25h.244l1.13-1.107v1.107h.155v-1.25h-.227l-1.147 1.124z" fill="#e20020" fill-rule="evenodd"/></g><g transform="translate(382.2318 524.4792)"><path d="m0 0c-.119 0-.209.005-.268.016-.078.012-.139.036-.184.072-.085.067-.127.191-.127.371v.34c0 .196.041.328.125.394.049.039.121.065.215.077.053.007.132.011.237.011h.418c.105 0 .185-.004.237-.011.094-.012.166-.038.215-.077.084-.066.126-.192.126-.378v-.349c0-.186-.042-.312-.126-.378-.049-.04-.121-.066-.215-.078-.05-.007-.129-.01-.237-.01zm.49 1.143h-.566c-.146 0-.243-.03-.288-.091-.033-.042-.049-.124-.049-.244v-.328c0-.121.016-.202.049-.244.045-.061.142-.092.288-.092h.566c.147 0 .243.031.289.092.031.041.046.116.046.225v.366c0 .109-.015.184-.046.225-.046.061-.142.091-.289.091" fill="#e20020" fill-rule="evenodd"/></g><g transform="translate(383.662 524.4948)"><path d="m0 0h-.158v1.25h.158v-.531h.217l.778.531h.269l-.886-.6.946-.65h-.275l-.832.583h-.217z" fill="#e20020" fill-rule="evenodd"/></g><g transform="translate(377.3702 526.5657)"><path d="m0 0c-.236.001-.177 3.79-.717 3.79h-1.919v.985h1.947c.294 0 .481-2.448.554-3.243.074-.794.098-.824.135-.824.038 0 .049.023.127.826.079.803.266 3.241.593 3.241h1.469c1.238 0 1.869-3.733 2.441-3.733.571 0 1.198 3.733 2.3 3.733h.636v-.985h-.618c-1.101 0-1.662-3.733-2.318-3.733-.657 0-1.203 3.733-2.441 3.733h-1.469c-.539 0-.484-3.791-.72-3.79" fill="#89ba17" fill-rule="evenodd"/></g></g></svg>

<?xml version="1.0" encoding="UTF-8" standalone="no"?>
<!-- Created with Inkscape (http://www.inkscape.org/) -->

<svg
   xmlns:dc="http://purl.org/dc/elements/1.1/"
   xmlns:cc="http://creativecommons.org/ns#"
   xmlns:rdf="http://www.w3.org/1999/02/22-rdf-syntax-ns#"
   xmlns:svg="http://www.w3.org/2000/svg"
   xmlns="http://www.w3.org/2000/svg"
   xmlns:sodipodi="http://sodipodi.sourceforge.net/DTD/sodipodi-0.dtd"
   xmlns:inkscape="http://www.inkscape.org/namespaces/inkscape"
   width="3.6163249mm"
   height="2.8503737mm"
   viewBox="0 0 3.6163249 2.8503737"
   version="1.1"
   id="svg52332"
   inkscape:version="0.92.0 r15299"
   sodipodi:docname="TV Pezinok.svg">
  <defs
     id="defs52326">
    <clipPath
       clipPathUnits="userSpaceOnUse"
       id="clipPath18794">
      <path
         d="m 374.735,524.479 h 10.251 v 8.08 h -10.251 z"
         id="path18792"
         inkscape:connector-curvature="0" />
    </clipPath>
  </defs>
  <sodipodi:namedview
     id="base"
     pagecolor="#ffffff"
     bordercolor="#666666"
     borderopacity="1.0"
     inkscape:pageopacity="0.0"
     inkscape:pageshadow="2"
     inkscape:zoom="44.8"
     inkscape:cx="4.5040081"
     inkscape:cy="4.479587"
     inkscape:document-units="mm"
     inkscape:current-layer="layer1"
     showgrid="false"
     fit-margin-top="0"
     fit-margin-left="0"
     fit-margin-right="0"
     fit-margin-bottom="0"
     inkscape:window-width="1920"
     inkscape:window-height="1017"
     inkscape:window-x="-8"
     inkscape:window-y="-8"
     inkscape:window-maximized="1" />
  <metadata
     id="metadata52329">
    <rdf:RDF>
      <cc:Work
         rdf:about="">
        <dc:format>image/svg+xml</dc:format>
        <dc:type
           rdf:resource="http://purl.org/dc/dcmitype/StillImage" />
        <dc:title></dc:title>
      </cc:Work>
    </rdf:RDF>
  </metadata>
  <g
     inkscape:label="Layer 1"
     inkscape:groupmode="layer"
     id="layer1"
     transform="translate(-131.99541,-112.63433)">
    <g
       transform="matrix(0.35277777,0,0,-0.35277777,-0.20276867,300.50931)"
       id="g18788">
      <g
         id="g18790"
         clip-path="url(#clipPath18794)">
        <g
           id="g18796"
           transform="translate(377.3702,527.7847)">
          <path
             d="m 0,0 c -0.236,0.001 -0.177,3.79 -0.717,3.79 h -1.919 v 0.985 h 1.947 c 0.294,0 0.481,-2.448 0.554,-3.243 C -0.061,0.738 -0.037,0.708 0,0.708 c 0.038,0 0.049,0.023 0.127,0.826 0.079,0.803 0.266,3.241 0.593,3.241 h 1.469 c 1.238,0 1.869,-3.733 2.441,-3.733 0.571,0 1.198,3.733 2.3,3.733 H 7.566 V 3.79 H 6.948 C 5.847,3.79 5.286,0.057 4.63,0.057 3.973,0.057 3.427,3.79 2.189,3.79 H 0.72 C 0.181,3.79 0.236,-0.001 0,0"
             style="fill:#e2001a;fill-opacity:1;fill-rule:evenodd;stroke:none"
             id="path18798"
             inkscape:connector-curvature="0" />
        </g>
        <g
           id="g18800"
           transform="translate(374.8979,524.4948)">
          <path
             d="M 0,0 H -0.155 V 1.25 H 0.713 C 0.899,1.25 1.025,1.232 1.09,1.197 1.166,1.156 1.203,1.075 1.203,0.952 V 0.789 C 1.203,0.667 1.166,0.585 1.09,0.545 1.025,0.511 0.899,0.493 0.713,0.493 H 0 Z m 0,0.634 h 0.758 c 0.115,0 0.19,0.014 0.225,0.042 0.036,0.027 0.054,0.083 0.054,0.168 v 0.06 C 1.037,0.989 1.019,1.045 0.983,1.073 0.948,1.1 0.873,1.114 0.758,1.114 H 0 Z"
             style="fill:#e20020;fill-opacity:1;fill-rule:evenodd;stroke:none"
             id="path18802"
             inkscape:connector-curvature="0" />
        </g>
        <g
           id="g18804"
           transform="translate(376.3368,524.4948)">
          <path
             d="M 0,0 V 1.25 H 1.231 V 1.111 H 0.151 V 0.719 H 1.186 V 0.579 H 0.151 v -0.44 h 1.08 V 0 Z"
             style="fill:#e20020;fill-opacity:1;fill-rule:evenodd;stroke:none"
             id="path18806"
             inkscape:connector-curvature="0" />
        </g>
        <g
           id="g18808"
           transform="translate(377.7193,524.4948)">
          <path
             d="M 0,0 V 0.139 L 1.155,1.114 H 0.043 V 1.25 H 1.382 V 1.114 L 0.227,0.139 H 1.399 V 0 Z"
             style="fill:#e20020;fill-opacity:1;fill-rule:evenodd;stroke:none"
             id="path18810"
             inkscape:connector-curvature="0" />
        </g>
        <path
           d="m 379.526,524.495 h -0.155 v 1.25 h 0.155 z"
           style="fill:#e20020;fill-opacity:1;fill-rule:evenodd;stroke:none"
           id="path18812"
           inkscape:connector-curvature="0" />
        <g
           id="g18814"
           transform="translate(379.9986,524.4948)">
          <path
             d="M 0,0 H -0.155 V 1.25 H 0.089 L 1.219,0.143 V 1.25 H 1.374 V 0 H 1.147 L 0,1.124 Z"
             style="fill:#e20020;fill-opacity:1;fill-rule:evenodd;stroke:none"
             id="path18816"
             inkscape:connector-curvature="0" />
        </g>
        <g
           id="g18818"
           transform="translate(382.2318,524.4792)">
          <path
             d="m 0,0 c -0.119,0 -0.209,0.005 -0.268,0.016 -0.078,0.012 -0.139,0.036 -0.184,0.072 -0.085,0.067 -0.127,0.191 -0.127,0.371 v 0.34 c 0,0.196 0.041,0.328 0.125,0.394 0.049,0.039 0.121,0.065 0.215,0.077 0.053,0.007 0.132,0.011 0.237,0.011 H 0.416 C 0.521,1.281 0.601,1.277 0.653,1.27 0.747,1.258 0.819,1.232 0.868,1.193 0.952,1.127 0.994,1.001 0.994,0.815 V 0.466 C 0.994,0.28 0.952,0.154 0.868,0.088 0.819,0.048 0.747,0.022 0.653,0.01 0.603,0.003 0.524,0 0.416,0 Z m 0.49,1.143 h -0.566 c -0.146,0 -0.243,-0.03 -0.288,-0.091 C -0.397,1.01 -0.413,0.928 -0.413,0.808 V 0.48 c 0,-0.121 0.016,-0.202 0.049,-0.244 0.045,-0.061 0.142,-0.092 0.288,-0.092 H 0.49 c 0.147,0 0.243,0.031 0.289,0.092 0.031,0.041 0.046,0.116 0.046,0.225 V 0.827 C 0.825,0.936 0.81,1.011 0.779,1.052 0.733,1.113 0.637,1.143 0.49,1.143"
             style="fill:#e20020;fill-opacity:1;fill-rule:evenodd;stroke:none"
             id="path18820"
             inkscape:connector-curvature="0" />
        </g>
        <g
           id="g18822"
           transform="translate(383.662,524.4948)">
          <path
             d="M 0,0 H -0.158 V 1.25 H 0 V 0.719 H 0.217 L 0.995,1.25 H 1.264 L 0.378,0.65 1.324,0 H 1.049 L 0.217,0.583 H 0 Z"
             style="fill:#e20020;fill-opacity:1;fill-rule:evenodd;stroke:none"
             id="path18824"
             inkscape:connector-curvature="0" />
        </g>
        <g
           id="g18826"
           transform="translate(377.3702,526.5657)">
          <path
             d="m 0,0 c -0.236,0.001 -0.177,3.79 -0.717,3.79 h -1.919 v 0.985 h 1.947 c 0.294,0 0.481,-2.448 0.554,-3.243 C -0.061,0.738 -0.037,0.708 0,0.708 c 0.038,0 0.049,0.023 0.127,0.826 0.079,0.803 0.266,3.241 0.593,3.241 h 1.469 c 1.238,0 1.869,-3.733 2.441,-3.733 0.571,0 1.198,3.733 2.3,3.733 H 7.566 V 3.79 H 6.948 C 5.847,3.79 5.286,0.057 4.63,0.057 3.973,0.057 3.427,3.79 2.189,3.79 H 0.72 C 0.181,3.79 0.236,-0.001 0,0"
             style="fill:#89ba17;fill-opacity:1;fill-rule:evenodd;stroke:none"
             id="path18828"
             inkscape:connector-curvature="0" />
        </g>
      </g>
    </g>
  </g>
</svg>
